astro/public/img/icons/quickstart.svg

<?xml version="1.0" encoding="UTF-8"?>
<svg width="70px" height="70px" viewBox="0 0 70 70" version="1.1" xmlns="http://www.w3.org/2000/svg" xmlns:xlink="http://www.w3.org/1999/xlink">
    <title>quickstart</title>
    <defs>
        <linearGradient x1="0%" y1="24.1699219%" x2="100%" y2="75.8300781%" id="linearGradient-1">
            <stop stop-color="#A4AEBE" offset="0%"></stop>
            <stop stop-color="#2D53F5" offset="100%"></stop>
        </linearGradient>
    </defs>
    <g id="quickstart" stroke="none" stroke-width="1" fill="none" fill-rule="evenodd">
        <g id="time" transform="translate(3, 12)" fill="url(#linearGradient-1)" fill-rule="nonzero">
            <path d="M40.9302326,0 C53.6713133,0 64,10.2974508 64,23 C63.9836004,35.6957707 53.6645142,45.98365 40.9302326,46 C28.1891518,46 17.8604651,35.7025492 17.8604651,23 C17.8604651,10.2974508 28.1891518,0 40.9302326,0 Z M20.0930233,38.5806452 C21.3260311,38.5806452 22.3255814,39.5771727 22.3255814,40.8064516 C22.3255814,42.0357306 21.3260311,43.0322581 20.0930233,43.0322581 L11.1627907,43.0322581 C9.92978288,43.0322581 8.93023256,42.0357306 8.93023256,40.8064516 C8.93023256,39.5771727 9.92978288,38.5806452 11.1627907,38.5806452 L20.0930233,38.5806452 Z M40.9302326,4.4516129 C30.6551674,4.4516129 22.3255814,12.7560087 22.3255814,23 C22.3255814,33.2439913 30.6551674,41.5483871 40.9302326,41.5483871 C51.2052977,41.5483871 59.5348837,33.2439913 59.5348837,23 C59.5348837,12.7560087 51.2052977,4.4516129 40.9302326,4.4516129 Z M14.1395349,29.6774194 C15.3725427,29.6774194 16.372093,30.6739468 16.372093,31.9032258 C16.372093,33.1325048 15.3725427,34.1290323 14.1395349,34.1290323 L5.20930233,34.1290323 C3.97629451,34.1290323 2.97674419,33.1325048 2.97674419,31.9032258 C2.97674419,30.6739468 3.97629451,29.6774194 5.20930233,29.6774194 L14.1395349,29.6774194 Z M40.9302326,8.90322581 C42.1632404,8.90322581 43.1627907,9.8997533 43.1627907,11.1290323 L43.1627907,22.08 L48.4613953,27.3625806 C49.3319542,28.2315876 49.3319542,29.6393802 48.4613953,30.5083871 C48.0449968,30.928727 47.4762908,31.1640798 46.8837209,31.1613148 C46.291151,31.1640798 45.722445,30.928727 45.3060465,30.5083871 L39.3525581,24.5729032 C38.9337526,24.155884 38.6981955,23.5901217 38.6976744,23 L38.6976744,11.1290323 C38.6976744,9.8997533 39.6972247,8.90322581 40.9302326,8.90322581 Z M14.1395349,20.7741935 C15.3725427,20.7741935 16.372093,21.770721 16.372093,23 C16.372093,24.229279 15.3725427,25.2258065 14.1395349,25.2258065 L2.23255814,25.2258065 C0.999550326,25.2258065 0,24.229279 0,23 C0,21.770721 0.999550326,20.7741935 2.23255814,20.7741935 L14.1395349,20.7741935 Z M14.1395349,11.8709677 C15.3725427,11.8709677 16.372093,12.8674952 16.372093,14.0967742 C16.372093,15.3260532 15.3725427,16.3225806 14.1395349,16.3225806 L5.20930233,16.3225806 C3.97629451,16.3225806 2.97674419,15.3260532 2.97674419,14.0967742 C2.97674419,12.8674952 3.97629451,11.8709677 5.20930233,11.8709677 L14.1395349,11.8709677 Z M20.0930233,2.96774194 C21.3260311,2.96774194 22.3255814,3.96426943 22.3255814,5.19354839 C22.3255814,6.42282735 21.3260311,7.41935484 20.0930233,7.41935484 L11.1627907,7.41935484 C9.92978288,7.41935484 8.93023256,6.42282735 8.93023256,5.19354839 C8.93023256,3.96426943 9.92978288,2.96774194 11.1627907,2.96774194 L20.0930233,2.96774194 Z" id="Combined-Shape"></path>
        </g>
    </g>
</svg>

<svg xmlns="http://www.w3.org/2000/svg" width="70" height="70"><defs><linearGradient id="a" x1="0%" x2="100%" y1="24.17%" y2="75.83%"><stop offset="0%" stop-color="#A4AEBE"/><stop offset="100%" stop-color="#2D53F5"/></linearGradient></defs><path fill="url(#a)" d="M40.93 0C53.671 0 64 10.297 64 23c-.016 12.696-10.335 22.984-23.07 23-12.74 0-23.07-10.297-23.07-23S28.19 0 40.93 0ZM20.093 38.58a2.23 2.23 0 0 1 2.233 2.226c0 1.23-1 2.226-2.233 2.226h-8.93a2.23 2.23 0 0 1-2.233-2.226c0-1.229 1-2.225 2.233-2.225h8.93ZM40.93 4.453c-10.275 0-18.604 8.304-18.604 18.548 0 10.244 8.33 18.548 18.604 18.548 10.275 0 18.605-8.304 18.605-18.548 0-10.244-8.33-18.548-18.605-18.548ZM14.14 29.677a2.23 2.23 0 0 1 2.232 2.226c0 1.23-1 2.226-2.232 2.226H5.21a2.23 2.23 0 0 1-2.233-2.226c0-1.23 1-2.226 2.232-2.226h8.93ZM40.93 8.903a2.23 2.23 0 0 1 2.233 2.226V22.08l5.298 5.283a2.22 2.22 0 0 1 0 3.145c-.416.42-.985.656-1.577.653a2.206 2.206 0 0 1-1.578-.653l-5.953-5.935A2.222 2.222 0 0 1 38.698 23V11.129c0-1.23 1-2.226 2.232-2.226ZM14.14 20.774A2.23 2.23 0 0 1 16.372 23c0 1.23-1 2.226-2.232 2.226H2.233A2.23 2.23 0 0 1 0 23c0-1.23 1-2.226 2.233-2.226H14.14Zm0-8.903a2.23 2.23 0 0 1 2.232 2.226c0 1.23-1 2.226-2.232 2.226H5.21a2.23 2.23 0 0 1-2.233-2.226c0-1.23 1-2.226 2.232-2.226h8.93Zm5.953-8.903a2.23 2.23 0 0 1 2.233 2.226c0 1.229-1 2.225-2.233 2.225h-8.93A2.23 2.23 0 0 1 8.93 5.194c0-1.23 1-2.226 2.233-2.226h8.93Z" transform="translate(3 12)"/></svg>
